!!!OTL: 1140. Zeuch, Fahle, zeuch!
!!!ODT: 1621
!!!ARE: Europa, Mitteleuropa, Deutschland
!!!SCT: E1140
!!!TXL: @@FRK
!!!YEM: Copyright 1995, estate of Helmut Schaffrath.
**kern	**text
*ICvox	*
*M4/4	*
*met(c)	*
*k[]	*
*C:	*
=1	=1
!LO:TX:a:t=Mel. 1621 aus einem achtſt. Tonſatʒe.	!
{2gg	Ʒeuch,
4ee	Fah-
4ff#	-le,
=2	=2
2gg	ʒeuch!
2r}	.
=3	=3
{2gg	Ʒeuch,
4ee	Fah-
4ff#	-le,
=4	=4
2gg	ʒeuch!
2r}	.
=5	=5
{4ee	Mor-
4ff	-gen
4gg	wölln
4ff	wir
=6	=6
(4ee	Haber
4dd)	.
2cc}	dreſchen,
=7	=7
{4ee	ſoll
4ff	das
4gg	Pferd
4ff	den
=8	=8
(4ee	Ha-
4dd)	-ber
2cc}	freſſen.
=9	=9
{2ee	Ʒeuch,
4dd	Fah-
4dd	-le,
=10	=10
2cc	ʒeuch!
2r}	.
=11	=11
{2ee	Ʒeuch,
4dd	Fah-
4dd	-le
=12	=12
1cc;}	ʒeuch!
==	==
!!!AGN: Trink -, Zech - Lied
!!!ONB: ESAC (Essen Associative Code) Database: ERK3
!!!AMT: simple quadruple
!!!AIN: vox
!!!EED: Helmut Schaffrath
!!!EEV: 1.0
!!!GTL: Trink- und Zechlieder.
!!!URL-scan: https://rosdok.uni-rostock.de/mcrviewer/recordIdentifier/rosdok_ppn745177999/iview2/phys_0077.iview2?x=175.33309798665778&y=2086.610273171158&scale=0.701185927818147&rotation=0&layout=singlePageLayout
!!!ENC: Anna Maria Matuszewska
!!!EEV: 2024/12/23
*-	*-
